X: 11081
Q: "Slow"
M: C
L: 1/8
K: C
|:\
c |\
_B2 (B/d/) (c/B/) A2 Ac | (Ge) d>c A>c A/G/ E | _B2 (B/d/) (c/B/) A2 Ac | (Ge) d>c c3 c |
_B2 (B/d/) (c/B/) A2 (3GAc | g>e d>c (A<c) (3AGE | (3DEG G>A (3GAc (3def | e2 Td>c c3 |]
c |\
e/f/g g>a g2 fe | eg {e}d>c A>c A/G/E | (eg) g>a {a}g2 fe | (d/e/)f d>c c3 c/d/ |
(eg) g>a {a}g2 (fe) | ge dc A>c A/G/E | (3DEG G>A (3GAc (3(de)f | e2 Td>c c4 |]


